X:410
T: Bimis ag Ol
S: "Ag Deanamh Ceoil" (CCE)
Z: B.Black
L: 1/8
M: 6/8
R: jig
K: G
A|DGA B3|cBc d2A|BGA B2d|cAG AGF|
DGA B3|cBc def|gbg afd|cAF G2 :|
A|GBd g3|gfd =f3|GBd g3|gfd cAG|
GBd g3|abg =f2g|abg afd|cAF G2 :|
